src/img/times.svg

<svg fill="none" height="24" viewBox="0 0 24 24" width="24" xmlns="http://www.w3.org/2000/svg"><path d="m13.3258 12 4.0062-4.00625.8262-.82617c.1219-.12188.1219-.31992 0-.4418l-.884-.88398c-.1219-.12188-.3199-.12188-.4418 0l-4.8324 4.8324-4.83242-4.83279c-.12188-.12188-.31992-.12188-.4418 0l-.88437.88398c-.12188.12188-.12188.31992 0 .4418l4.83279 4.83281-4.83279 4.8324c-.12188.1219-.12188.3199 0 .4418l.88398.884c.12188.1219.31992.1219.4418 0l4.83281-4.8324 4.0063 4.0062.8261.8262c.1219.1219.3199.1219.4418 0l.884-.884c.1219-.1219.1219-.3199 0-.4418z" fill="#6f6f6f"/></svg>

<svg width="24" height="24" viewBox="0 0 24 24" fill="none" 
  xmlns="http://www.w3.org/2000/svg">
  <path d="M13.3258 12L17.332 7.99375L18.1582 7.16758C18.2801 7.0457 18.2801 6.84766 18.1582 6.72578L17.2742 5.8418C17.1523 5.71992 16.9543 5.71992 16.8324 5.8418L12 10.6742L7.16758 5.84141C7.0457 5.71953 6.84766 5.71953 6.72578 5.84141L5.84141 6.72539C5.71953 6.84727 5.71953 7.04531 5.84141 7.16719L10.6742 12L5.84141 16.8324C5.71953 16.9543 5.71953 17.1523 5.84141 17.2742L6.72539 18.1582C6.84727 18.2801 7.04531 18.2801 7.16719 18.1582L12 13.3258L16.0063 17.332L16.8324 18.1582C16.9543 18.2801 17.1523 18.2801 17.2742 18.1582L18.1582 17.2742C18.2801 17.1523 18.2801 16.9543 18.1582 16.8324L13.3258 12Z" fill="#6F6F6F"/>
</svg>
